components/svgs/borderFooter.svg

<?xml version="1.0" encoding="UTF-8" standalone="no"?><!DOCTYPE svg PUBLIC "-//W3C//DTD SVG 1.1//EN" "http://www.w3.org/Graphics/SVG/1.1/DTD/svg11.dtd"><svg width="100%" height="100%" viewBox="0 0 3471 139" version="1.1" xmlns="http://www.w3.org/2000/svg" xmlns:xlink="http://www.w3.org/1999/xlink" xml:space="preserve" xmlns:serif="http://www.serif.com/" style="fill-rule:evenodd;clip-rule:evenodd;stroke-linejoin:round;stroke-miterlimit:2;"><path d="M433.761,138.889l-433.761,-0c0,-0 21.819,-27.946 45.882,-58.766c39.481,-50.566 100.057,-80.123 164.21,-80.123c4.52,0 9.056,0 13.576,0c64.154,-0 124.73,29.557 164.21,80.123c24.064,30.82 45.883,58.766 45.883,58.766Zm433.76,-0l-433.76,-0c-0,-0 21.819,-27.946 45.882,-58.766c39.481,-50.566 100.057,-80.123 164.21,-80.123c4.52,0 9.056,0 13.576,0c64.154,-0 124.729,29.557 164.21,80.123c24.064,30.82 45.882,58.766 45.882,58.766Zm867.522,-0l-433.761,-0c0,-0 21.819,-27.946 45.883,-58.766c39.48,-50.566 100.056,-80.123 164.21,-80.123c4.52,0 9.056,0 13.576,0c64.153,-0 124.729,29.557 164.21,80.123c24.063,30.82 45.882,58.766 45.882,58.766Zm1735.04,-0l-433.761,-0c0,-0 21.819,-27.946 45.883,-58.766c39.48,-50.566 100.056,-80.123 164.21,-80.123c4.52,0 9.056,0 13.576,0c64.153,-0 124.729,29.557 164.21,80.123c24.063,30.82 45.882,58.766 45.882,58.766Zm-867.522,-0l-433.76,-0c-0,-0 21.819,-27.946 45.882,-58.766c39.481,-50.566 100.057,-80.123 164.21,-80.123c4.52,0 9.056,0 13.576,0c64.154,-0 124.729,29.557 164.21,80.123c24.064,30.82 45.882,58.766 45.882,58.766Zm-1301.28,-0l-433.761,-0c0,-0 21.819,-27.946 45.883,-58.766c39.481,-50.566 100.056,-80.123 164.21,-80.123c4.52,0 9.056,0 13.576,0c64.153,-0 124.729,29.557 164.21,80.123c24.063,30.82 45.882,58.766 45.882,58.766Zm867.522,-0l-433.761,-0c-0,-0 21.819,-27.946 45.882,-58.766c39.481,-50.566 100.057,-80.123 164.21,-80.123c4.52,0 9.056,0 13.576,0c64.154,-0 124.73,29.557 164.21,80.123c24.064,30.82 45.883,58.766 45.883,58.766Zm867.521,-0l-433.761,-0c0,-0 21.819,-27.946 45.883,-58.766c39.481,-50.566 100.056,-80.123 164.21,-80.123c4.52,0 9.056,0 13.576,0c64.153,-0 124.729,29.557 164.21,80.123c24.063,30.82 45.882,58.766 45.882,58.766Z" style="fill:#b3b3b5;"/></svg>

<?xml version="1.0" encoding="UTF-8" standalone="no"?>
<!DOCTYPE svg PUBLIC "-//W3C//DTD SVG 1.1//EN" "http://www.w3.org/Graphics/SVG/1.1/DTD/svg11.dtd">
<svg width="100%" height="100%" viewBox="0 0 3471 139" version="1.1" xmlns="http://www.w3.org/2000/svg" xmlns:xlink="http://www.w3.org/1999/xlink" xml:space="preserve" xmlns:serif="http://www.serif.com/" style="fill-rule:evenodd;clip-rule:evenodd;stroke-linejoin:round;stroke-miterlimit:2;">
    <path d="M433.761,138.889L0,138.889C0,138.889 21.819,110.943 45.882,80.123C85.363,29.557 145.939,0 210.092,0L223.668,0C287.822,0 348.398,29.557 387.878,80.123C411.942,110.943 433.761,138.889 433.761,138.889ZM867.521,138.889L433.761,138.889C433.761,138.889 455.58,110.943 479.643,80.123C519.124,29.557 579.7,0 643.853,0L657.429,0C721.583,0 782.158,29.557 821.639,80.123C845.703,110.943 867.521,138.889 867.521,138.889ZM1735.04,138.889L1301.28,138.889C1301.28,138.889 1323.1,110.943 1347.16,80.123C1386.64,29.557 1447.22,0 1511.38,0L1524.95,0C1589.1,0 1649.68,29.557 1689.16,80.123C1713.22,110.943 1735.04,138.889 1735.04,138.889ZM3470.08,138.889L3036.32,138.889C3036.32,138.889 3058.14,110.943 3082.2,80.123C3121.68,29.557 3182.26,0 3246.41,0L3259.99,0C3324.14,0 3384.72,29.557 3424.2,80.123C3448.26,110.943 3470.08,138.889 3470.08,138.889ZM2602.56,138.889L2168.8,138.889C2168.8,138.889 2190.62,110.943 2214.68,80.123C2254.16,29.557 2314.74,0 2378.89,0L2392.47,0C2456.62,0 2517.2,29.557 2556.68,80.123C2580.74,110.943 2602.56,138.889 2602.56,138.889ZM1301.28,138.889L867.52,138.889C867.52,138.889 889.339,110.943 913.403,80.123C952.884,29.557 1013.46,0 1077.61,0L1091.19,0C1155.34,0 1215.92,29.557 1255.4,80.123C1279.46,110.943 1301.28,138.889 1301.28,138.889ZM2168.8,138.889L1735.04,138.889C1735.04,138.889 1756.86,110.943 1780.92,80.123C1820.4,29.557 1880.98,0 1945.13,0L1958.71,0C2022.86,0 2083.44,29.557 2122.92,80.123C2146.98,110.943 2168.8,138.889 2168.8,138.889ZM3036.32,138.889L2602.56,138.889C2602.56,138.889 2624.38,110.943 2648.45,80.123C2687.93,29.557 2748.5,0 2812.66,0L2826.23,0C2890.39,0 2950.96,29.557 2990.44,80.123C3014.51,110.943 3036.32,138.889 3036.32,138.889Z" style="fill:rgb(88,88,101);"/>
</svg>
